X: 43565
T: Young Conor Of Lachineen
R: jig
M: 6/8
K: Adorian
|:ABG ABc|dge fdc|ABG ABc|dBG AFD|
DGB ABc|dge fdc|DFA fdc|DGF G2A:|
|:BGG dGG|BGG dcB|c2e edc|ABc FGA|
BGA B2c|dge fdc|DFA fdc|DGF G2d:|
|:gdd edc|Bdg gdc|B3 c2e|dBG ABc|
gdd edc|Bdg gdc|DFA fdc|DGF G3:|
|:B3 D3|dGG BGG|D3 A2c|dBG ABc|
B3 D3|dGG BGG|DFA fdc|DGF G3:|

